packages/kaspersky-hexa-ui-icons/src/iconsSVGs/16/Analytics.svg

<svg width="16" height="16" viewBox="0 0 16 16" fill="none" xmlns="http://www.w3.org/2000/svg">
<path fill-rule="evenodd" clip-rule="evenodd" d="M12.7786 4.94416C13.2598 4.94416 13.6498 4.55413 13.6498 4.07301C13.6498 3.59188 13.2598 3.20186 12.7786 3.20186C12.2975 3.20186 11.9075 3.59188 11.9075 4.07301C11.9075 4.55413 12.2975 4.94416 12.7786 4.94416ZM14.9498 4.07301C14.9498 5.2721 13.9777 6.24416 12.7786 6.24416C12.7138 6.24416 12.6496 6.24132 12.5861 6.23575L11.9053 7.99782C12.434 8.39382 12.7761 9.02528 12.7761 9.73664C12.7761 10.9357 11.8041 11.9078 10.605 11.9078C9.40589 11.9078 8.43383 10.9357 8.43383 9.73664C8.43383 9.52735 8.46344 9.32498 8.51871 9.13348L6.74667 7.96225C6.37574 8.25783 5.90583 8.43448 5.39466 8.43448C5.34078 8.43448 5.28735 8.43252 5.23445 8.42866L4.54708 10.2077C5.06108 10.6048 5.39211 11.2272 5.39211 11.927C5.39211 13.1261 4.42005 14.0981 3.22096 14.0981C2.02186 14.0981 1.0498 13.1261 1.0498 11.927C1.0498 10.7279 2.02186 9.75581 3.22096 9.75581C3.25653 9.75581 3.2919 9.75666 3.32705 9.75835L4.02614 7.94895C3.53641 7.55087 3.22351 6.94364 3.22351 6.26333C3.22351 5.06423 4.19557 4.09217 5.39466 4.09217C6.59376 4.09217 7.56582 5.06423 7.56582 6.26333C7.56582 6.47958 7.5342 6.68845 7.47534 6.88556L9.23743 8.05022C9.61074 7.74713 10.0866 7.56549 10.605 7.56549C10.6295 7.56549 10.6539 7.5659 10.6783 7.5667L11.3849 5.73782C10.9096 5.33954 10.6075 4.74157 10.6075 4.07301C10.6075 2.87391 11.5795 1.90186 12.7786 1.90186C13.9777 1.90186 14.9498 2.87391 14.9498 4.07301ZM3.22096 11.0558C2.73983 11.0558 2.3498 11.4458 2.3498 11.927C2.3498 12.4081 2.73983 12.7981 3.22096 12.7981C3.70208 12.7981 4.09211 12.4081 4.09211 11.927C4.09211 11.4458 3.70208 11.0558 3.22096 11.0558ZM4.52351 6.26333C4.52351 5.7822 4.91354 5.39217 5.39466 5.39217C5.87579 5.39217 6.26582 5.7822 6.26582 6.26333C6.26582 6.74445 5.87579 7.13448 5.39466 7.13448C4.91354 7.13448 4.52351 6.74445 4.52351 6.26333ZM10.605 10.6078C11.0861 10.6078 11.4761 10.2178 11.4761 9.73664C11.4761 9.25552 11.0861 8.86549 10.605 8.86549C10.1239 8.86549 9.73383 9.25552 9.73383 9.73664C9.73383 10.2178 10.1239 10.6078 10.605 10.6078Z" fill="black"/>
</svg>

<svg xmlns="http://www.w3.org/2000/svg" width="16" height="16" fill="none" viewBox="0 0 16 16"><path fill="#000" fill-rule="evenodd" d="M12.7786 4.9442a.8711.8711 0 1 0 0-1.7423.871.871 0 0 0-.8711.8711c0 .4811.39.8712.8711.8712m2.1712-.8712c0 1.1991-.9721 2.1712-2.1712 2.1712q-.0972 0-.1925-.0084l-.6808 1.762c.5287.396.8708 1.0275.8708 1.7388 0 1.1991-.972 2.1712-2.1711 2.1712s-2.1712-.9721-2.1712-2.1712c0-.2092.0296-.4116.085-.6031L6.7466 7.9623a2.162 2.162 0 0 1-1.352.4722q-.081 0-.1603-.0058l-.6873 1.779c.514.3971.845 1.0195.845 1.7193 0 1.1991-.972 2.1711-2.1711 2.1711s-2.1712-.972-2.1712-2.1711.972-2.1712 2.1712-2.1712q.0533 0 .106.0025l.6991-1.8094c-.4897-.398-.8026-1.0053-.8026-1.6856 0-1.199.972-2.1711 2.1712-2.1711 1.199 0 2.1711.972 2.1711 2.1711 0 .2163-.0316.4251-.0905.6223l1.7621 1.1646a2.162 2.162 0 0 1 1.4409-.4835l.7066-1.8289c-.4753-.3983-.7774-.9962-.7774-1.6648 0-1.199.972-2.1711 2.1711-2.1711s2.1712.972 2.1712 2.1711M3.221 11.0558a.8711.8711 0 1 0 0 1.7423.8711.8711 0 0 0 0-1.7423m1.3025-4.7925a.8712.8712 0 1 1 1.7423 0 .8712.8712 0 0 1-1.7423 0m6.0815 4.3445c.4811 0 .8711-.39.8711-.8712a.8711.8711 0 1 0-1.7423 0c0 .4812.3901.8712.8712.8712"/></svg>
